svg/license.svg

<svg xmlns="http://www.w3.org/2000/svg" viewBox="0 0 24 24"><path d="M9 10a3.04 3.04 0 0 1 3-3 3.04 3.04 0 0 1 3 3 3.04 3.04 0 0 1-3 3 3.04 3.04 0 0 1-3-3m3 9 4 1v-3.08A7.54 7.54 0 0 1 12 18a7.54 7.54 0 0 1-4-1.08V20m4-16a5.78 5.78 0 0 0-4.24 1.74A5.78 5.78 0 0 0 6 10a5.78 5.78 0 0 0 1.76 4.23A5.78 5.78 0 0 0 12 16a5.78 5.78 0 0 0 4.24-1.77A5.78 5.78 0 0 0 18 10a5.78 5.78 0 0 0-1.76-4.26A5.78 5.78 0 0 0 12 4m8 6a8 8 0 0 1-.57 2.8A7.8 7.8 0 0 1 18 15.28V23l-6-2-6 2v-7.72A7.9 7.9 0 0 1 4 10a7.68 7.68 0 0 1 2.33-5.64A7.73 7.73 0 0 1 12 2a7.73 7.73 0 0 1 5.67 2.36A7.68 7.68 0 0 1 20 10"/></svg>

<?xml version="1.0" encoding="UTF-8"?><!DOCTYPE svg PUBLIC "-//W3C//DTD SVG 1.1//EN" "http://www.w3.org/Graphics/SVG/1.1/DTD/svg11.dtd"><svg xmlns="http://www.w3.org/2000/svg" xmlns:xlink="http://www.w3.org/1999/xlink" version="1.1" id="mdi-license" width="24" height="24" viewBox="0 0 24 24"><path d="M9 10A3.04 3.04 0 0 1 12 7A3.04 3.04 0 0 1 15 10A3.04 3.04 0 0 1 12 13A3.04 3.04 0 0 1 9 10M12 19L16 20V16.92A7.54 7.54 0 0 1 12 18A7.54 7.54 0 0 1 8 16.92V20M12 4A5.78 5.78 0 0 0 7.76 5.74A5.78 5.78 0 0 0 6 10A5.78 5.78 0 0 0 7.76 14.23A5.78 5.78 0 0 0 12 16A5.78 5.78 0 0 0 16.24 14.23A5.78 5.78 0 0 0 18 10A5.78 5.78 0 0 0 16.24 5.74A5.78 5.78 0 0 0 12 4M20 10A8.04 8.04 0 0 1 19.43 12.8A7.84 7.84 0 0 1 18 15.28V23L12 21L6 23V15.28A7.9 7.9 0 0 1 4 10A7.68 7.68 0 0 1 6.33 4.36A7.73 7.73 0 0 1 12 2A7.73 7.73 0 0 1 17.67 4.36A7.68 7.68 0 0 1 20 10Z" /></svg>
